src/assets/tabbar/icon-menu-active.svg

<?xml version="1.0" encoding="UTF-8" standalone="no"?>
<svg width="28px" height="28px" viewBox="0 0 28 28" version="1.1" xmlns="http://www.w3.org/2000/svg" xmlns:xlink="http://www.w3.org/1999/xlink">
    <!-- Generator: Sketch 43.2 (39069) - http://www.bohemiancoding.com/sketch -->
    <title>Rectangle 334</title>
    <desc>Created with Sketch.</desc>
    <defs>
        <rect id="path-1" x="0" y="0" width="28" height="28"></rect>
    </defs>
    <g id="Page-1" stroke="none" stroke-width="1" fill="none" fill-rule="evenodd">
        <g id="order-a">
            <g id="Rectangle-334" opacity="0">
                <use fill="#D8D8D8" fill-rule="evenodd" xlink:href="#path-1"></use>
                <rect stroke="#979797" stroke-width="1" x="0.5" y="0.5" width="27" height="27"></rect>
            </g>
            <path d="M14.432066,16.9736808 C12.5976212,16.9736808 11.110391,15.4755474 11.110391,13.6276538 C11.110391,11.7797603 12.5976212,10.2816269 14.432066,10.2816269 C16.2665109,10.2816269 17.753741,11.7797603 17.753741,13.6276538 C17.753741,15.4755474 16.2665109,16.9736808 14.432066,16.9736808 M22.4992446,4.92069942 C22.4143535,4.55185341 22.0117585,3.5 21.2972891,3.5 L7.33106987,3.5 C6.61660045,3.5 6.21364116,4.55185341 6.1287501,4.92069942 L5.84274373,6.16413254 C5.81760432,6.2731348 5.84347241,6.38764222 5.91269688,6.47535784 C5.98155701,6.56307345 6.08685108,6.61372097 6.19761023,6.61372097 L7.22067505,6.61372097 C7.22067505,6.62289624 8.38291749,23.059849 8.38291749,23.059849 C8.43101028,23.8672731 9.09775124,24.5 9.90111945,24.5 L18.7272395,24.5 C19.5298791,24.5 20.1969844,23.8672731 20.2447128,23.0682903 L21.5975047,6.61372097 L22.4303844,6.61372097 C22.5415079,6.61372097 22.646802,6.56307345 22.7156621,6.47535784 C22.7848866,6.38764222 22.8103903,6.2731348 22.7856153,6.16413254 L22.4992446,4.92069942 Z" id="Fill-1" fill="#00A862"></path>
        </g>
    </g>
</svg>

<svg width="28" height="28" xmlns="http://www.w3.org/2000/svg"><defs><path id="a" d="M0 0h28v28H0z"/></defs><path d="M14.432 16.974c-1.834 0-3.322-1.498-3.322-3.346s1.488-3.346 3.322-3.346c1.835 0 3.322 1.498 3.322 3.346s-1.487 3.346-3.322 3.346M22.5 4.92c-.085-.37-.487-1.421-1.202-1.421H7.331c-.714 0-1.117 1.052-1.202 1.42l-.286 1.244a.369.369 0 00.07.311.362.362 0 00.285.139H7.22L8.383 23.06c.048.807.715 1.44 1.518 1.44h8.826c.803 0 1.47-.633 1.518-1.432l1.353-16.454h.832c.112 0 .217-.05.286-.139a.37.37 0 00.07-.31l-.287-1.244z" fill="#00A862" fill-rule="evenodd"/></svg>
